packages/icons/src/components/Icon/assets/small-outline/members.svg

<svg width="16" height="16" viewBox="0 0 16 16" fill="none" xmlns="http://www.w3.org/2000/svg">
<path fill-rule="evenodd" clip-rule="evenodd" d="M7.99957 2.90666C7.23132 2.90666 6.60853 3.52945 6.60853 4.2977C6.60853 5.06595 7.23132 5.68874 7.99957 5.68874C8.76782 5.68874 9.39061 5.06595 9.39061 4.2977C9.39061 3.52945 8.76782 2.90666 7.99957 2.90666ZM5.44186 4.2977C5.44186 2.88512 6.58699 1.73999 7.99957 1.73999C9.41215 1.73999 10.5573 2.88512 10.5573 4.2977C10.5573 5.71028 9.41215 6.85541 7.99957 6.85541C6.58699 6.85541 5.44186 5.71028 5.44186 4.2977ZM3.55723 5.37463C3.06158 5.37463 2.65978 5.77643 2.65978 6.27207C2.65978 6.76772 3.06158 7.16952 3.55723 7.16952C4.05287 7.16952 4.45467 6.76772 4.45467 6.27207C4.45467 5.77643 4.05287 5.37463 3.55723 5.37463ZM1.49311 6.27207C1.49311 5.13209 2.41725 4.20796 3.55723 4.20796C4.69721 4.20796 5.62134 5.13209 5.62134 6.27207C5.62134 7.41205 4.69721 8.33619 3.55723 8.33619C2.41725 8.33619 1.49311 7.41205 1.49311 6.27207ZM12.4419 5.37463C11.9463 5.37463 11.5445 5.77643 11.5445 6.27207C11.5445 6.76772 11.9463 7.16952 12.4419 7.16952C12.9376 7.16952 13.3394 6.76772 13.3394 6.27207C13.3394 5.77643 12.9376 5.37463 12.4419 5.37463ZM10.3778 6.27207C10.3778 5.13209 11.3019 4.20796 12.4419 4.20796C13.5819 4.20796 14.506 5.13209 14.506 6.27207C14.506 7.41205 13.5819 8.33619 12.4419 8.33619C11.3019 8.33619 10.3778 7.41205 10.3778 6.27207ZM7.99957 8.82978C6.80816 8.82978 5.76086 9.44845 5.16199 10.3848C4.83076 10.9027 4.63751 11.517 4.6342 12.1779L4.63415 12.1952C4.63415 12.2218 4.63446 12.2483 4.63507 12.2747C5.64176 12.7973 6.78543 13.0926 7.99957 13.0926C9.21371 13.0926 10.3574 12.7973 11.3641 12.2747C11.3647 12.2483 11.365 12.2218 11.365 12.1952L11.365 12.1778C11.3616 11.5171 11.1685 10.903 10.8374 10.3852C10.2385 9.4486 9.19113 8.82978 7.99957 8.82978ZM12.4893 12.7784C12.4505 12.9297 12.3521 13.0604 12.2146 13.1392C10.9724 13.852 9.53269 14.2593 7.99957 14.2593C6.46645 14.2593 5.02671 13.852 3.78453 13.1392C3.64706 13.0604 3.54868 12.9297 3.50984 12.7784C2.77017 12.773 2.05872 12.644 1.39586 12.4106C1.17838 12.334 1.02642 12.1365 1.00813 11.9067C1.00274 11.8389 1 11.7705 1 11.7016C1 10.289 2.14513 9.1439 3.55771 9.1439C3.88814 9.1439 4.20455 9.2068 4.4951 9.32131C5.32563 8.30976 6.58694 7.66312 7.99957 7.66312C9.41232 7.66312 10.6737 8.30986 11.5043 9.32156C11.795 9.2069 12.1116 9.1439 12.4423 9.1439C13.8549 9.1439 15 10.289 15 11.7016C15 11.7705 14.9973 11.8389 14.9919 11.9067C14.9736 12.1365 14.8216 12.334 14.6041 12.4106C13.941 12.6441 13.2293 12.7731 12.4893 12.7784ZM12.1374 10.344C12.3147 10.7398 12.437 11.1657 12.4944 11.6116C12.9486 11.6073 13.3886 11.5464 13.808 11.4358C13.6839 10.7947 13.1196 10.3106 12.4423 10.3106C12.3374 10.3106 12.2354 10.3221 12.1374 10.344ZM3.86183 10.3438C3.76409 10.322 3.66235 10.3106 3.55771 10.3106C2.88037 10.3106 2.3161 10.7947 2.19204 11.4358C2.61118 11.5463 3.05088 11.6072 3.50477 11.6116C3.56217 11.1657 3.68444 10.7397 3.86183 10.3438Z" fill="black"/>
</svg>

<svg xmlns="http://www.w3.org/2000/svg" width="16" height="16" fill="none" viewBox="0 0 16 16">
    <path fill="#000" fill-rule="evenodd" d="M8 2.907a1.391 1.391 0 1 0 0 2.782 1.391 1.391 0 0 0 0-2.782m-2.558 1.39a2.558 2.558 0 1 1 5.115 0 2.558 2.558 0 0 1-5.115 0M3.557 5.376a.897.897 0 1 0 0 1.795.897.897 0 0 0 0-1.795m-2.064.897a2.064 2.064 0 1 1 4.128 0 2.064 2.064 0 0 1-4.128 0m10.949-.897a.897.897 0 1 0 0 1.794.897.897 0 0 0 0-1.794m-2.064.897a2.064 2.064 0 1 1 4.128 0 2.064 2.064 0 0 1-4.128 0M8 8.83a3.36 3.36 0 0 0-3.366 3.348v.017l.001.08A7.3 7.3 0 0 0 8 13.093a7.3 7.3 0 0 0 3.364-.818l.001-.08v-.017A3.36 3.36 0 0 0 8 8.83m4.49 3.948a.58.58 0 0 1-.275.361A8.44 8.44 0 0 1 8 14.26a8.44 8.44 0 0 1-4.215-1.12.58.58 0 0 1-.275-.36 6.5 6.5 0 0 1-2.114-.368.58.58 0 0 1-.388-.504 2.558 2.558 0 0 1 3.487-2.585A4.52 4.52 0 0 1 8 7.662c1.412 0 2.674.647 3.504 1.659a2.558 2.558 0 0 1 3.488 2.585.58.58 0 0 1-.388.504 6.5 6.5 0 0 1-2.115.367m-.353-2.434c.178.396.3.822.357 1.268a5.3 5.3 0 0 0 1.314-.176 1.39 1.39 0 0 0-1.67-1.092m-8.275 0a1.396 1.396 0 0 0-1.67 1.092q.631.167 1.313.176c.057-.446.18-.872.357-1.268" clip-rule="evenodd"/>
</svg>
